assets/img/braze_icons/modem-01.svg

<svg fill="none" height="24" viewBox="0 0 24 24" width="24" xmlns="http://www.w3.org/2000/svg"><g fill="#801ed7"><path clip-rule="evenodd" d="m5.63579 1.22185c.39053.39052.39053 1.02369 0 1.41421-3.39586 3.39587-3.51069 8.83044-.34452 12.36404h5.70873v-6.00001c0-.55228.4477-1 1-1s1 .44772 1 1v6.00001h5.7087c3.1662-3.5336 3.0513-8.96817-.3445-12.36404-.3906-.39052-.3906-1.02369 0-1.41421.3905-.390526 1.0236-.390526 1.4142 0 3.8034 3.80338 4.2393 9.69895 1.3078 13.98205.0206.0078.0412.016.0618.0246.7351.3044 1.3191.8885 1.6236 1.6235.135.326.1845.6559.207.9857.0214.3133.0214.6918.0214 1.1304v.064c0 .4386 0 .8171-.0214 1.1304-.0225.3298-.072.6597-.207.9856-.3045.7351-.8885 1.3192-1.6236 1.6236-.3259.135-.6558.1845-.9856.207-.3133.0214-.6917.0214-1.1303.0214h-14.06411c-.43861 0-.81716 0-1.13039-.0214-.32983-.0225-.65974-.072-.98567-.207-.73509-.3044-1.31911-.8885-1.62359-1.6236-.135-.3259-.18451-.6558-.20701-.9856-.021375-.3133-.021365-.6918-.021353-1.1304v-.064c-.000012-.4386-.000022-.8171.021353-1.1304.0225-.3298.07201-.6597.20701-.9857.30448-.735.8885-1.3191 1.62359-1.6235.02059-.0086.0412-.0168.06183-.0246-2.9315156-4.2831-2.495564-10.17867 1.30782-13.98205.39053-.390526 1.02369-.390526 1.41421 0z" fill-rule="evenodd"/><path d="m8.46444 5.46452c.39053-.39052.39053-1.02369 0-1.41421-.39052-.39052-1.02369-.39052-1.41421 0-2.73367 2.73367-2.73367 7.16579 0 9.89949.39052.3905 1.02369.3905 1.41421 0 .39053-.3905.39053-1.0237 0-1.4142-1.95262-1.9526-1.95262-5.11845 0-7.07108z"/><path d="m16.9498 4.05031c-.3906-.39052-1.0237-.39052-1.4143 0-.3905.39052-.3905 1.02369 0 1.41421 1.9527 1.95263 1.9527 5.11848 0 7.07108-.3905.3905-.3905 1.0237 0 1.4142.3906.3905 1.0237.3905 1.4143 0 2.7336-2.7337 2.7336-7.16582 0-9.89949z"/></g></svg>

<svg width="24" height="24" viewBox="0 0 24 24" fill="none" xmlns="http://www.w3.org/2000/svg">
<path fill-rule="evenodd" clip-rule="evenodd" d="M5.63579 1.22185C6.02632 1.61237 6.02632 2.24554 5.63579 2.63606C2.23993 6.03193 2.1251 11.4665 5.29127 15.0001H11V9.00009C11 8.44781 11.4477 8.00009 12 8.00009C12.5523 8.00009 13 8.44781 13 9.00009V15.0001H18.7087C21.8749 11.4665 21.76 6.03193 18.3642 2.63606C17.9736 2.24554 17.9736 1.61237 18.3642 1.22185C18.7547 0.831324 19.3878 0.831324 19.7784 1.22185C23.5818 5.02523 24.0177 10.9208 21.0862 15.2039C21.1068 15.2117 21.1274 15.2199 21.148 15.2285C21.8831 15.5329 22.4671 16.117 22.7716 16.852C22.9066 17.178 22.9561 17.5079 22.9786 17.8377C23 18.151 23 18.5295 23 18.9681V19.0321C23 19.4707 23 19.8492 22.9786 20.1625C22.9561 20.4923 22.9066 20.8222 22.7716 21.1481C22.4671 21.8832 21.8831 22.4673 21.148 22.7717C20.8221 22.9067 20.4922 22.9562 20.1624 22.9787C19.8491 23.0001 19.4707 23.0001 19.0321 23.0001H4.96799C4.52938 23.0001 4.15083 23.0001 3.8376 22.9787C3.50777 22.9562 3.17786 22.9067 2.85193 22.7717C2.11684 22.4673 1.53282 21.8832 1.22834 21.1481C1.09334 20.8222 1.04383 20.4923 1.02133 20.1625C0.999955 19.8492 0.999965 19.4707 0.999977 19.0321L0.999977 18.9681C0.999965 18.5295 0.999955 18.151 1.02133 17.8377C1.04383 17.5079 1.09334 17.178 1.22834 16.852C1.53282 16.117 2.11684 15.5329 2.85193 15.2285C2.87252 15.2199 2.89313 15.2117 2.91376 15.2039C-0.0177556 10.9208 0.418196 5.02523 4.22158 1.22185C4.61211 0.831324 5.24527 0.831324 5.63579 1.22185Z" fill="#801ED7"/>
<path d="M8.46444 5.46452C8.85497 5.074 8.85497 4.44083 8.46444 4.05031C8.07392 3.65979 7.44075 3.65979 7.05023 4.05031C4.31656 6.78398 4.31656 11.2161 7.05023 13.9498C7.44075 14.3403 8.07392 14.3403 8.46444 13.9498C8.85497 13.5593 8.85497 12.9261 8.46444 12.5356C6.51182 10.583 6.51182 7.41715 8.46444 5.46452Z" fill="#801ED7"/>
<path d="M16.9498 4.05031C16.5592 3.65979 15.9261 3.65979 15.5355 4.05031C15.145 4.44083 15.145 5.074 15.5355 5.46452C17.4882 7.41715 17.4882 10.583 15.5355 12.5356C15.145 12.9261 15.145 13.5593 15.5355 13.9498C15.9261 14.3403 16.5592 14.3403 16.9498 13.9498C19.6834 11.2161 19.6834 6.78398 16.9498 4.05031Z" fill="#801ED7"/>
</svg>
